X: 21
T: Dusty Windowsills
C: Johnny Harling
Z: Evan Mcconkey
S: https://thesession.org/tunes/29#setting54316
R: jig
M: 6/8
L: 1/8
K: Ador
|:A2B cBA|eAB cBA|Bee dBG|Bee GAB|
A2B cBA|e2d efg|age dBG|ABA A3:|
|:a3 age|dBd g3|gag gfe|dBA G3|
a3 age|dBd g3|Bee dBG|ABA A3:|
|:A2A gAf|A2A gAf|G2G eGd|G2G edB|
A2A gAf|A2d efg|age dBG|ABA A3:|

%-------------------- TUNE SEPARATOR --------------------%

